X:89
T: O DANNEBOHM, O DANNEBOHM, WAT DRAEGST DU'N GROENEN TWIEG
N: Z0089
O: Europa, Mitteleuropa, Deutschland, Westfalen
R: Sagen - Lied, Romanze, Liebeslied
M: 4/4
L: 1/8
K: E
B,2 | E2B2B2B2 | B2A2A2
A2 | =G2G2B2AG | F4z2
F2 | =G4B2G2 | A4=c2
A2 | =G2G2F2F2 | E6

